resources/images/icons/circle-arrow-right.svg

<svg fill="none" height="24" viewBox="0 0 24 24" width="24" xmlns="http://www.w3.org/2000/svg"><path d="m12 4c-4.41828 0-8 3.58172-8 8 0 4.4183 3.58172 8 8 8 4.4183 0 8-3.5817 8-8 0-4.41828-3.5817-8-8-8zm-10 8c0-5.52285 4.47715-10 10-10 5.5228 0 10 4.47715 10 10 0 5.5228-4.4772 10-10 10-5.52285 0-10-4.4772-10-10zm10.2929-4.70711c.3905-.39052 1.0237-.39052 1.4142 0l4 4.00001c.3905.3905.3905 1.0237 0 1.4142l-4 4c-.3905.3905-1.0237.3905-1.4142 0s-.3905-1.0237 0-1.4142l2.2929-2.2929h-7.5858c-.55228 0-1-.4477-1-1s.44772-1 1-1h7.5858l-2.2929-2.29289c-.3905-.39053-.3905-1.02369 0-1.41422z" fill="#0d0d0d" xmlns="http://www.w3.org/2000/svg"/></svg>

<svg fill="none" viewBox="0 0 24 24" height="24" width="24" xmlns="http://www.w3.org/2000/svg">
<path xmlns="http://www.w3.org/2000/svg" d="M12 4C7.58172 4 4 7.58172 4 12C4 16.4183 7.58172 20 12 20C16.4183 20 20 16.4183 20 12C20 7.58172 16.4183 4 12 4ZM2 12C2 6.47715 6.47715 2 12 2C17.5228 2 22 6.47715 22 12C22 17.5228 17.5228 22 12 22C6.47715 22 2 17.5228 2 12ZM12.2929 7.29289C12.6834 6.90237 13.3166 6.90237 13.7071 7.29289L17.7071 11.2929C18.0976 11.6834 18.0976 12.3166 17.7071 12.7071L13.7071 16.7071C13.3166 17.0976 12.6834 17.0976 12.2929 16.7071C11.9024 16.3166 11.9024 15.6834 12.2929 15.2929L14.5858 13H7C6.44772 13 6 12.5523 6 12C6 11.4477 6.44772 11 7 11H14.5858L12.2929 8.70711C11.9024 8.31658 11.9024 7.68342 12.2929 7.29289Z" fill="#0D0D0D"></path>
</svg>
